X:32
T:Froggie on the Carport
M:4/4
R:reel
Q:1/2=120
L:1/8
K:A
cB|"A"Acef aga2|"A"Acef aga2|"A"Acef "G"=gagf|"G"edef =g2=g2|
"A"Acef aga2|"A"Acef aga2|"E"efed cAB2|"A"A4 A2::
cB|"A"ABcd e2c2|"D"d3c d2D2|"G"=GABc d2B2|"C"=c3B c2cB|
"A"ABcd e2ef|"A"a2a2 "G"=g4|"E"efed cAB2|"A"A4 A2:|
%%newpage
